X: 15079
T: Gerrymandering
R: waltz
M: 3/4
K: Gmajor
D2|B4 _Bc|B4 G|E4 _EF|E4 _E2|
D3 G B2|d4 c2|A6|z2 z2 D2|
B4 _Bc|B4 G2|E4 _EF|E4 _E2|
D3 F A2|c4 F2|G6|z2 z2 D2|
A4 _AB|A4 D2|B4 _Bc|B4 G2|
E4 GB|c4 B2||A6|z2 z2 D2|
A4 _AB|A4 D2|B3 G F2|E4 _E2|
D4 FA|c4 F2|G6|z2 z2 D2|
A4 _AB|A4 D2|B4 GF|E4 _E2|
D3 F A2|d4 f2|g6||

